X:106
T:106 The Battle of the Nile
C:Welch MS
I:abc2nwc
M:C
L:1/8
K:G
"A"DD|G3G A3A|BABc d3G|c2B3/2c/2 A2G3/2G/2|A3/2G/2F3/2E/2 D2D2|
G3G A3A|B3/2A/2B3/2c/2 d2e3/2d/2|cBAG BAGF|G2G3/2G/2 "Fine"G2:|
B3/2B/2|d2B3/2B/2 d3e|edcB c2A2|c2A3/2A/2 c2c2|d3/2c/2B3/2A/2 B3/2A/2GD/2D/2|
GGGG A2AA|B3/2A/2B3/2c/2 d2DD|GGGG AAAA|BABc d3B|ddee edcB|"A al Fine"c2B2A2|]

